; generated by Slic3r 1.0.0RC3 on 2014-03-25 at 09:17:14

; layer_height = 0.3
; perimeters = 3
; top_solid_layers = 2
; bottom_solid_layers = 2
; fill_density = 0.25
; perimeter_speed = 40
; infill_speed = 60
; travel_speed = 130
; nozzle_diameter = 0.4
; filament_diameter = 1.78
; extrusion_multiplier = 1
; perimeters extrusion width = 0.40mm
; infill extrusion width = 0.42mm
; solid infill extrusion width = 0.42mm
; top infill extrusion width = 0.42mm
; first layer extrusion width = 0.70mm

G21 ; set units to millimeters
M107
M190 S61 ; wait for bed temperature to be reached
M104 S242 ; set temperature
G28 ; home all axes
G1 Z5 F5000 ; lift nozzle
M109 S242 ; wait for temperature to be reached
G90 ; use absolute coordinates
G92 E0
M82 ; use absolute distances for extrusion
G1 F1800.000 E-1.00000
G92 E0
G1 Z0.350 F7800.000
G1 X94.890 Y65.838 F7800.000
G1 E1.00000 F1800.000
G1 X95.510 Y65.048 E1.08978 F720.000
G1 X95.770 Y64.758 E1.12460
G1 X96.280 Y64.248 E1.18908
G1 X96.570 Y63.988 E1.22390
G1 X97.360 Y63.368 E1.31368
G1 X97.870 Y63.028 E1.36847
G1 X98.810 Y62.498 E1.46495
G1 X99.750 Y62.088 E1.55663
G1 X100.110 Y61.958 E1.59085
G1 X100.830 Y61.738 E1.65815
G1 X101.210 Y61.648 E1.69306
G1 X102.120 Y61.488 E1.77566
G1 X102.770 Y61.418 E1.83411
G1 X103.140 Y61.398 E1.86724
G1 X129.510 Y61.388 E4.22470
G1 X130.240 Y61.418 E4.29002
G1 X131.300 Y61.548 E4.38549
G1 X132.200 Y61.738 E4.46773
G1 X132.920 Y61.958 E4.53503
G1 X133.930 Y62.358 E4.63215
G1 X134.740 Y62.778 E4.71372
G1 X135.080 Y62.978 E4.74898
G1 X135.670 Y63.368 E4.81221
G1 X136.460 Y63.988 E4.90199
G1 X136.750 Y64.248 E4.93681
G1 X137.260 Y64.758 E5.00129
G1 X137.520 Y65.048 E5.03611
G1 X138.140 Y65.838 E5.12589
G1 X138.530 Y66.428 E5.18911
G1 X138.730 Y66.768 E5.22438
G1 X139.150 Y67.578 E5.30595
G1 X139.440 Y68.278 E5.37369
G1 X139.570 Y68.648 E5.40875
G1 X139.820 Y69.488 E5.48710
G1 X139.990 Y70.378 E5.56810
G1 X140.040 Y70.768 E5.60325
G1 X140.090 Y71.268 E5.64817
G1 X140.120 Y71.998 E5.71349
G1 X140.120 Y97.998 E8.03788
G1 X140.090 Y98.728 E8.10320
G1 X139.990 Y99.608 E8.18237
G1 X139.830 Y100.458 E8.25970
G1 X139.730 Y100.838 E8.29483
G1 X139.550 Y101.398 E8.34741
G1 X139.180 Y102.338 E8.43772
G1 X139.010 Y102.698 E8.47332
G1 X138.480 Y103.638 E8.56979
G1 X137.910 Y104.458 E8.65907
G1 X137.260 Y105.228 E8.74915
G1 X136.750 Y105.738 E8.81363
G1 X136.460 Y105.998 E8.84845
G1 X135.780 Y106.548 E8.92664
G1 X135.080 Y107.018 E9.00202
G1 X134.740 Y107.218 E9.03728
G1 X133.790 Y107.688 E9.13204
G1 X132.920 Y108.028 E9.21554
G1 X132.360 Y108.208 E9.26813
G1 X131.980 Y108.308 E9.30326
G1 X131.300 Y108.448 E9.36533
G1 X130.910 Y108.508 E9.40060
G1 X130.070 Y108.578 E9.47596
G1 X129.510 Y108.598 E9.52605
G1 X103.520 Y108.598 E11.84955
G1 X102.960 Y108.578 E11.89964
G1 X102.120 Y108.508 E11.97500
G1 X101.730 Y108.448 E12.01027
G1 X101.050 Y108.308 E12.07234
G1 X100.670 Y108.208 E12.10747
G1 X99.750 Y107.898 E12.19426
G1 X98.950 Y107.558 E12.27197
G1 X98.200 Y107.168 E12.34754
G1 X97.870 Y106.968 E12.38204
G1 X97.250 Y106.548 E12.44899
G1 X96.940 Y106.308 E12.48404
G1 X96.280 Y105.738 E12.56200
G1 X95.770 Y105.228 E12.62648
G1 X95.510 Y104.938 E12.66130
G1 X94.890 Y104.148 E12.75108
G1 X94.350 Y103.308 E12.84035
G1 X94.020 Y102.698 E12.90236
G1 X93.850 Y102.338 E12.93795
G1 X93.480 Y101.398 E13.02826
G1 X93.300 Y100.838 E13.08085
G1 X93.200 Y100.458 E13.11597
G1 X93.040 Y99.608 E13.19330
G1 X92.940 Y98.728 E13.27248
G1 X92.920 Y98.348 E13.30649
G1 X92.910 Y71.998 E15.66217
G1 X92.940 Y71.268 E15.72749
G1 X93.040 Y70.378 E15.80756
G1 X93.210 Y69.488 E15.88856
G1 X93.310 Y69.118 E15.92282
G1 X93.590 Y68.278 E16.00198
G1 X93.880 Y67.578 E16.06972
G1 X94.050 Y67.228 E16.10451
G1 X94.500 Y66.428 E16.18656
G1 X94.838 Y65.918 E16.24127
G1 F1800.000 E15.24127
G92 E0
G1 X127.177 Y95.197 F7800.000
G1 E1.00000 F1800.000
G1 X128.237 Y94.561 E1.11054 F540.000
G1 X129.662 Y94.347 E1.23937
G1 X130.708 Y94.531 E1.33430
G1 X131.943 Y95.252 E1.46212
G1 X132.633 Y96.076 E1.55820
G1 X132.956 Y96.718 E1.62244
G1 X133.182 Y98.084 E1.74622
G1 X132.981 Y99.200 E1.84761
G1 X132.257 Y100.433 E1.97542
G1 X131.431 Y101.119 E2.07149
G1 X130.788 Y101.440 E2.13571
G1 X129.539 Y101.649 E2.24893
G1 X129.375 Y101.654 E2.26359
G1 X127.985 Y101.325 E2.39126
G1 X126.709 Y100.331 E2.53587
G1 X126.077 Y99.268 E2.64639
G1 X125.867 Y97.855 E2.77410
G1 X126.187 Y96.477 E2.90063
G1 X127.118 Y95.272 E3.03673
G1 X127.766 Y95.435 F7800.000
G1 F1800.000 E2.03673
G92 E0
G1 X124.290 Y96.718 F7800.000
G1 E1.00000 F1800.000
G1 X124.509 Y98.132 E1.12799 F540.000
G1 X124.315 Y99.200 E1.22499
G1 X123.591 Y100.433 E1.35280
G1 X122.765 Y101.119 E1.44886
G1 X122.122 Y101.440 E1.51309
G1 X120.873 Y101.649 E1.62631
G1 X120.709 Y101.654 E1.64097
G1 X119.319 Y101.325 E1.76864
G1 X118.043 Y100.331 E1.91325
G1 X117.411 Y99.268 E2.02377
G1 X117.201 Y97.855 E2.15148
G1 X117.521 Y96.477 E2.27801
G1 X118.511 Y95.197 E2.42263
G1 X119.571 Y94.561 E2.53317
G1 X120.996 Y94.347 E2.66199
G1 X122.375 Y94.668 E2.78852
G1 X123.655 Y95.657 E2.93315
G1 X124.241 Y96.636 E3.03516
G1 X123.850 Y97.176 F7800.000
G1 F1800.000 E2.03516
G92 E0
G1 X122.122 Y92.774 F7800.000
G1 E1.00000 F1800.000
G1 X120.873 Y92.983 E1.11322 F540.000
G1 X120.709 Y92.988 E1.12788
G1 X119.319 Y92.659 E1.25555
G1 X118.043 Y91.665 E1.40015
G1 X117.412 Y90.602 E1.51067
G1 X117.201 Y89.189 E1.63837
G1 X117.521 Y87.811 E1.76490
G1 X118.511 Y86.531 E1.90952
G1 X119.571 Y85.895 E2.02007
G1 X120.996 Y85.681 E2.14889
G1 X122.375 Y86.002 E2.27542
G1 X123.655 Y86.991 E2.42004
G1 X124.290 Y88.052 E2.53058
G1 X124.510 Y89.464 E2.65839
G1 X124.315 Y90.534 E2.75559
G1 X123.591 Y91.767 E2.88339
G1 X122.765 Y92.453 E2.97945
G1 X122.207 Y92.731 E3.03515
G1 X121.671 Y92.326 F7800.000
G1 F1800.000 E2.03515
G92 E0
G1 X126.078 Y90.602 F7800.000
G1 E1.00000 F1800.000
G1 X125.867 Y89.189 E1.12770 F540.000
G1 X126.187 Y87.811 E1.25423
G1 X127.177 Y86.531 E1.39885
G1 X128.237 Y85.895 E1.50939
G1 X129.662 Y85.681 E1.63822
G1 X131.041 Y86.002 E1.76475
G1 X132.321 Y86.991 E1.90937
G1 X132.957 Y88.054 E2.02011
G1 X133.175 Y89.466 E2.14790
G1 X132.981 Y90.534 E2.24489
G1 X132.257 Y91.767 E2.37270
G1 X131.431 Y92.453 E2.46877
G1 X130.788 Y92.774 E2.53298
G1 X129.539 Y92.983 E2.64621
G1 X129.375 Y92.988 E2.66087
G1 X127.985 Y92.659 E2.78854
G1 X126.709 Y91.665 E2.93315
G1 X126.126 Y90.684 E3.03514
G1 X126.520 Y90.146 F7800.000
G1 F1800.000 E2.03514
G92 E0
G1 X127.985 Y83.993 F7800.000
G1 E1.00000 F1800.000
G1 X126.709 Y82.999 E1.14460 F540.000
G1 X126.078 Y81.936 E1.25511
G1 X125.867 Y80.523 E1.38282
G1 X126.187 Y79.145 E1.50935
G1 X127.178 Y77.864 E1.65415
G1 X128.239 Y77.228 E1.76470
G1 X129.662 Y77.015 E1.89334
G1 X131.043 Y77.336 E2.02006
G1 X132.322 Y78.327 E2.16468
G1 X132.957 Y79.388 E2.27523
G1 X133.175 Y80.800 E2.40303
G1 X132.981 Y81.868 E2.50001
G1 X132.257 Y83.101 E2.62783
G1 X131.430 Y83.787 E2.72389
G1 X130.788 Y84.108 E2.78809
G1 X129.539 Y84.317 E2.90131
G1 X129.375 Y84.322 E2.91597
G1 X128.078 Y84.015 E3.03513
G1 X127.982 Y83.357 F7800.000
G1 F1800.000 E2.03513
G92 E0
G1 X129.375 Y75.656 F7800.000
G1 E1.00000 F1800.000
G1 X127.985 Y75.327 E1.12768 F540.000
G1 X126.709 Y74.333 E1.27228
G1 X126.087 Y73.267 E1.38262
G1 X125.867 Y71.857 E1.51016
G1 X126.188 Y70.477 E1.63687
G1 X127.178 Y69.198 E1.78150
G1 X128.239 Y68.562 E1.89204
G1 X129.662 Y68.349 E2.02068
G1 X130.710 Y68.534 E2.11580
G1 X131.944 Y69.256 E2.24363
G1 X132.635 Y70.079 E2.33971
G1 X132.957 Y70.722 E2.40395
G1 X133.182 Y72.086 E2.52755
G1 X132.981 Y73.202 E2.62893
G1 X132.257 Y74.435 E2.75674
G1 X131.430 Y75.121 E2.85281
G1 X130.788 Y75.442 E2.91701
G1 X129.470 Y75.653 E3.03632
G1 X129.117 Y75.075 F7800.000
G1 F1800.000 E2.03632
G92 E0
G1 X124.315 Y73.202 F7800.000
G1 E1.00000 F1800.000
G1 X123.591 Y74.435 E1.12781 F540.000
G1 X122.764 Y75.121 E1.22386
G1 X122.122 Y75.442 E1.28807
G1 X120.873 Y75.651 E1.40129
G1 X120.709 Y75.656 E1.41595
G1 X119.319 Y75.327 E1.54362
G1 X118.043 Y74.333 E1.68823
G1 X117.412 Y73.270 E1.79874
G1 X117.201 Y71.857 E1.92644
G1 X117.522 Y70.477 E2.05316
G1 X118.512 Y69.198 E2.19778
G1 X119.573 Y68.562 E2.30833
G1 X120.996 Y68.349 E2.43697
G1 X122.377 Y68.670 E2.56369
G1 X123.656 Y69.661 E2.70831
G1 X124.291 Y70.721 E2.81885
G1 X124.510 Y72.134 E2.94666
G1 X124.332 Y73.108 E3.03514
G1 X123.683 Y73.271 F7800.000
G1 F1800.000 E2.03514
G92 E0
G1 X122.377 Y77.336 F7800.000
G1 E1.00000 F1800.000
G1 X123.656 Y78.327 E1.14462 F540.000
G1 X124.290 Y79.386 E1.25498
G1 X124.510 Y80.798 E1.38279
G1 X124.315 Y81.868 E1.47998
G1 X123.591 Y83.101 E1.60780
G1 X122.764 Y83.787 E1.70385
G1 X122.122 Y84.108 E1.76806
G1 X120.873 Y84.317 E1.88128
G1 X120.709 Y84.322 E1.89594
G1 X119.319 Y83.993 E2.02361
G1 X118.043 Y82.999 E2.16822
G1 X117.412 Y81.936 E2.27873
G1 X117.201 Y80.523 E2.40643
G1 X117.521 Y79.145 E2.53296
G1 X118.511 Y77.865 E2.67758
G1 X119.571 Y77.229 E2.78813
G1 X120.996 Y77.015 E2.91695
G1 X122.284 Y77.315 E3.03514
G1 X122.382 Y77.972 F7800.000
G1 F1800.000 E2.03514
G92 E0
G1 X115.624 Y79.386 F7800.000
G1 E1.00000 F1800.000
G1 X115.844 Y80.798 E1.12781 F540.000
G1 X115.649 Y81.868 E1.22500
G1 X114.925 Y83.101 E1.35282
G1 X114.098 Y83.787 E1.44887
G1 X113.456 Y84.108 E1.51308
G1 X112.207 Y84.317 E1.62630
G1 X112.043 Y84.322 E1.64096
G1 X110.653 Y83.993 E1.76863
G1 X109.377 Y82.999 E1.91324
G1 X108.746 Y81.936 E2.02375
G1 X108.535 Y80.523 E2.15145
G1 X108.855 Y79.145 E2.27798
G1 X109.845 Y77.865 E2.42260
G1 X110.905 Y77.229 E2.53315
G1 X112.330 Y77.015 E2.66197
G1 X113.709 Y77.336 E2.78850
G1 X114.989 Y78.325 E2.93312
G1 X115.575 Y79.304 E3.03514
G1 X115.184 Y79.844 F7800.000
G1 F1800.000 E2.03514
G92 E0
G1 X113.456 Y75.442 F7800.000
G1 E1.00000 F1800.000
G1 X112.207 Y75.651 E1.11322 F540.000
G1 X112.043 Y75.656 E1.12788
G1 X110.653 Y75.327 E1.25555
G1 X109.377 Y74.333 E1.40016
G1 X108.746 Y73.270 E1.51067
G1 X108.535 Y71.857 E1.63837
G1 X108.856 Y70.477 E1.76509
G1 X109.846 Y69.198 E1.90971
G1 X110.907 Y68.562 E2.02026
G1 X112.330 Y68.349 E2.14890
G1 X113.711 Y68.670 E2.27562
G1 X114.990 Y69.661 E2.42024
G1 X115.625 Y70.721 E2.53078
G1 X115.844 Y72.134 E2.65859
G1 X115.649 Y73.202 E2.75559
G1 X114.925 Y74.435 E2.88340
G1 X114.098 Y75.121 E2.97946
G1 X113.541 Y75.399 E3.03514
G1 X113.005 Y74.994 F7800.000
G1 F1800.000 E2.03514
G92 E0
G1 X106.983 Y73.202 F7800.000
G1 E1.00000 F1800.000
G1 X106.259 Y74.435 E1.12781 F540.000
G1 X105.432 Y75.121 E1.22386
G1 X104.790 Y75.442 E1.28807
G1 X103.541 Y75.651 E1.40129
G1 X103.377 Y75.656 E1.41595
G1 X101.987 Y75.327 E1.54363
G1 X100.711 Y74.333 E1.68823
G1 X100.080 Y73.270 E1.79874
G1 X99.869 Y71.857 E1.92645
G1 X100.190 Y70.477 E2.05317
G1 X101.180 Y69.198 E2.19779
G1 X102.241 Y68.562 E2.30833
G1 X103.664 Y68.349 E2.43697
G1 X105.045 Y68.670 E2.56369
G1 X106.324 Y69.661 E2.70831
G1 X106.959 Y70.721 E2.81885
G1 X107.178 Y72.134 E2.94666
G1 X107.000 Y73.108 E3.03514
G1 X106.351 Y73.271 F7800.000
G1 F1800.000 E2.03514
G92 E0
G1 X105.043 Y77.336 F7800.000
G1 E1.00000 F1800.000
G1 X106.323 Y78.325 E1.14462 F540.000
G1 X106.958 Y79.386 E1.25516
G1 X107.178 Y80.798 E1.38297
G1 X106.983 Y81.868 E1.48017
G1 X106.259 Y83.101 E1.60798
G1 X105.432 Y83.787 E1.70404
G1 X104.790 Y84.108 E1.76824
G1 X103.541 Y84.317 E1.88146
G1 X103.377 Y84.322 E1.89612
G1 X101.987 Y83.993 E2.02380
G1 X100.711 Y82.999 E2.16841
G1 X100.079 Y81.936 E2.27893
G1 X99.869 Y80.523 E2.40664
G1 X100.189 Y79.145 E2.53317
G1 X101.179 Y77.865 E2.67779
G1 X102.239 Y77.229 E2.78833
G1 X103.664 Y77.015 E2.91716
G1 X104.950 Y77.314 E3.03516
G1 X105.048 Y77.971 F7800.000
G1 F1800.000 E2.03516
G92 E0
G1 X103.664 Y85.681 F7800.000
G1 E1.00000 F1800.000
G1 X105.042 Y86.002 E1.12652 F540.000
G1 X106.323 Y86.991 E1.27112
G1 X106.958 Y88.052 E1.38167
G1 X107.178 Y89.464 E1.50948
G1 X106.983 Y90.534 E1.60667
G1 X106.259 Y91.767 E1.73448
G1 X105.432 Y92.453 E1.83054
G1 X104.790 Y92.774 E1.89475
G1 X103.541 Y92.983 E2.00797
G1 X103.377 Y92.988 E2.02263
G1 X101.987 Y92.659 E2.15030
G1 X100.711 Y91.665 E2.29491
G1 X100.079 Y90.602 E2.40543
G1 X99.869 Y89.189 E2.53313
G1 X100.190 Y87.809 E2.65985
G1 X101.180 Y86.530 E2.80447
G1 X102.241 Y85.894 E2.91501
G1 X103.570 Y85.695 E3.03513
G1 X103.924 Y86.261 F7800.000
G1 F1800.000 E2.03513
G92 E0
G1 X103.664 Y94.347 F7800.000
G1 E1.00000 F1800.000
G1 X105.043 Y94.668 E1.12653 F540.000
G1 X106.323 Y95.657 E1.27115
G1 X106.958 Y96.718 E1.38169
G1 X107.177 Y98.132 E1.50968
G1 X106.983 Y99.200 E1.60669
G1 X106.259 Y100.433 E1.73449
G1 X105.433 Y101.119 E1.83056
G1 X104.790 Y101.440 E1.89478
G1 X103.541 Y101.649 E2.00800
G1 X103.377 Y101.654 E2.02266
G1 X101.987 Y101.325 E2.15033
G1 X100.711 Y100.331 E2.29494
G1 X100.079 Y99.268 E2.40546
G1 X99.869 Y97.855 E2.53317
G1 X100.189 Y96.477 E2.65970
G1 X101.179 Y95.197 E2.80432
G1 X102.239 Y94.561 E2.91486
G1 X103.570 Y94.361 E3.03516
G1 X103.924 Y94.927 F7800.000
G1 F1800.000 E2.03516
G92 E0
G1 X108.855 Y96.477 F7800.000
G1 E1.00000 F1800.000
G1 X109.845 Y95.197 E1.14462 F540.000
G1 X110.905 Y94.561 E1.25516
G1 X112.330 Y94.347 E1.38399
G1 X113.709 Y94.668 E1.51052
G1 X114.989 Y95.657 E1.65514
G1 X115.624 Y96.718 E1.76568
G1 X115.843 Y98.132 E1.89366
G1 X115.649 Y99.200 E1.99067
G1 X114.925 Y100.433 E2.11848
G1 X114.099 Y101.119 E2.21454
G1 X113.456 Y101.440 E2.27877
G1 X112.207 Y101.649 E2.39199
G1 X112.043 Y101.654 E2.40665
G1 X110.653 Y101.325 E2.53432
G1 X109.377 Y100.331 E2.67893
G1 X108.745 Y99.268 E2.78944
G1 X108.535 Y97.855 E2.91716
G1 X108.834 Y96.570 E3.03516
G1 X109.491 Y96.471 F7800.000
G1 F1800.000 E2.03516
G92 E0
G1 X110.653 Y92.659 F7800.000
G1 E1.00000 F1800.000
G1 X109.377 Y91.665 E1.14460 F540.000
G1 X108.746 Y90.602 E1.25512
G1 X108.535 Y89.189 E1.38282
G1 X108.855 Y87.811 E1.50935
G1 X109.845 Y86.531 E1.65397
G1 X110.905 Y85.895 E1.76452
G1 X112.330 Y85.681 E1.89334
G1 X113.709 Y86.002 E2.01987
G1 X114.989 Y86.991 E2.16449
G1 X115.624 Y88.052 E2.27503
G1 X115.844 Y89.464 E2.40284
G1 X115.649 Y90.534 E2.50004
G1 X114.925 Y91.767 E2.62785
G1 X114.098 Y92.453 E2.72390
G1 X113.456 Y92.774 E2.78811
G1 X112.207 Y92.983 E2.90133
G1 X112.043 Y92.988 E2.91599
G1 X110.746 Y92.681 E3.03514
G1 X110.650 Y92.023 F7800.000
M106 S255
M104 S238 ; set temperature
G1 F1800.000 E2.03514
G92 E0
G1 Z0.650 F7800.000
G1 X126.164 Y96.557 F7800.000
G1 E1.00000 F1800.000
G1 X126.514 Y95.933 E1.03448 F730.651
G1 X126.973 Y95.384 E1.06897
G1 X127.694 Y94.830 E1.11284
G1 X128.167 Y94.610 E1.13801
G1 X128.853 Y94.404 E1.17255
G1 X129.515 Y94.347 E1.20456
G1 X130.810 Y94.580 E1.26803
G1 X131.448 Y94.904 E1.30256
G1 X132.133 Y95.453 E1.34488
G1 X132.687 Y96.174 E1.38874
G1 X132.907 Y96.648 E1.41392
G1 X133.114 Y97.334 E1.44846
G1 X133.173 Y98.054 E1.48330
G1 X132.925 Y99.324 E1.54572
G1 X132.594 Y99.959 E1.58024
G1 X132.155 Y100.523 E1.61473
G1 X131.476 Y101.080 E1.65707
G1 X130.986 Y101.336 E1.68371
G1 X130.148 Y101.599 E1.72606
G1 X129.434 Y101.653 E1.76061
G1 X128.194 Y101.405 E1.82160
G1 X127.423 Y100.984 E1.86396
G1 X126.881 Y100.517 E1.89844
G1 X126.333 Y99.792 E1.94229
G1 X126.048 Y99.135 E1.97683
G1 X125.867 Y97.914 E2.03632
G1 X125.913 Y97.393 E2.06155
G1 X126.147 Y96.614 E2.10077
G1 X126.562 Y96.523 F7800.000
G1 F1800.000 E1.10077
G92 E0
G1 X128.194 Y92.739 F7800.000
G1 E1.00000 F1800.000
G1 X127.423 Y92.318 E1.04236 F730.651
G1 X126.882 Y91.851 E1.07683
G1 X126.334 Y91.125 E1.12067
G1 X126.047 Y90.469 E1.15521
G1 X125.867 Y89.248 E1.21471
G1 X125.913 Y88.733 E1.23964
G1 X126.164 Y87.891 E1.28204
G1 X126.514 Y87.267 E1.31653
G1 X126.973 Y86.718 E1.35102
G1 X127.694 Y86.164 E1.39488
G1 X128.167 Y85.944 E1.42006
G1 X128.853 Y85.738 E1.45459
G1 X129.515 Y85.681 E1.48661
G1 X130.118 Y85.727 E1.51580
G1 X130.810 Y85.914 E1.55036
G1 X131.448 Y86.238 E1.58488
G1 X132.133 Y86.787 E1.62720
G1 X132.690 Y87.514 E1.67136
G1 X132.926 Y88.013 E1.69799
G1 X133.115 Y88.673 E1.73111
G1 X133.173 Y89.388 E1.76567
G1 X132.925 Y90.658 E1.82809
G1 X132.595 Y91.294 E1.86262
G1 X132.155 Y91.857 E1.89711
G1 X131.476 Y92.414 E1.93946
G1 X130.986 Y92.670 E1.96609
G1 X130.148 Y92.933 E2.00844
G1 X129.434 Y92.987 E2.04299
