; generated by Slic3r 1.1.3 on 2014-06-29 at 02:01:41

; perimeters extrusion width = 0.40mm
; infill extrusion width = 0.42mm
; solid infill extrusion width = 0.42mm
; top infill extrusion width = 0.42mm

G21 ; set units to millimeters
M107
M190 S91 ; wait for bed temperature to be reached
M104 S242 ; set temperature
G28 ; home all axes
G1 Z5 F5000 ; lift nozzle
M109 S242 ; wait for temperature to be reached
G90 ; use absolute coordinates
G92 E0
M82 ; use absolute distances for extrusion
G1 F1800.000 E-1.00000
G92 E0
G1 Z0.350 F7800.000
G1 X92.205 Y63.683 F7800.000
G1 E1.00000 F1800.000
G1 X93.885 Y62.119 E1.08788 F1080.000
G1 X96.522 Y61.120 E1.19585
G1 X109.532 Y59.194 E1.69938
G1 X110.922 Y59.073 E1.75277
G1 X112.078 Y59.073 E1.79705
G1 X113.443 Y59.192 E1.84952
G1 X113.867 Y59.241 E1.86584 F1080.000
G1 X126.478 Y61.120 E2.35398
G1 X128.655 Y61.846 E2.44186
G1 X130.455 Y63.270 E2.52973
G1 X131.662 Y65.222 E2.61761
G1 X132.089 Y66.901 E2.68392
G1 X134.036 Y83.683 E3.33076
G1 X134.036 Y102.342 E4.04515
G1 X133.639 Y104.603 E4.13303
G1 X132.495 Y106.593 E4.22090
G1 X130.742 Y108.075 E4.30878
G1 X128.589 Y108.871 E4.39666
G1 X127.400 Y108.978 E4.44237
G1 X92.600 Y108.978 E5.77472
G1 X90.339 Y108.581 E5.86259
G1 X88.349 Y107.438 E5.95047
G1 X86.867 Y105.685 E6.03835
G1 X86.072 Y103.532 E6.12623
G1 X85.964 Y102.342 E6.17194
G1 X85.964 Y83.683 E6.88633
G1 X86.092 Y82.389 E6.93612
G1 X86.328 Y81.382 E6.97572
G1 X91.159 Y65.726 E7.60300
G1 X92.178 Y63.737 E7.68858
G1 F1800.000 E6.68858
G92 E0
G1 X98.000 Y87.604 F7800.000
G1 E1.00000 F1800.000
G1 X99.276 Y88.133 E1.05287 F504.000
G1 X99.470 Y88.213 E1.06092 F504.000
G1 X100.079 Y89.683 E1.12183
G1 X99.470 Y91.153 E1.18275
G1 X98.000 Y91.762 E1.24366
G1 X96.530 Y91.153 E1.30458
G1 X95.921 Y89.683 E1.36550
G1 X96.530 Y88.213 E1.42641
G1 X97.945 Y87.627 E1.48503
G1 X99.423 Y87.983 F7800.000
G1 F1800.000 E0.48503
G92 E0
G1 X119.921 Y89.683 F7800.000
G1 E1.00000 F1800.000
G1 X120.530 Y88.213 E1.06092 F504.000
G1 X122.000 Y87.604 E1.12183
G1 X123.276 Y88.133 E1.17471
G1 X123.470 Y88.213 E1.18275 F504.000
G1 X124.079 Y89.683 E1.24366
G1 X123.470 Y91.153 E1.30458
G1 X122.000 Y91.762 E1.36549
G1 X120.530 Y91.153 E1.42641
G1 X119.944 Y89.738 E1.48503
G1 F1800.000 E0.48503
G92 E0
G1 X123.378 Y87.949 F7800.000
G1 X97.583 Y100.721 F7800.000
G1 E1.00000 F1800.000
G1 X94.221 Y100.721 E1.12872 F720.000
G1 X94.221 Y89.970 E1.54032
G1 X94.631 Y89.889 E1.55630
G1 X95.275 Y91.445 E1.62079
G1 X95.557 Y92.126 E1.64899 F720.000
G1 X98.000 Y93.138 E1.75023
G1 X99.310 Y92.595 E1.80451
G1 X99.860 Y92.682 E1.82585
G1 X100.266 Y95.211 E1.92392
G1 X100.065 Y95.314 E1.93257
G1 X100.355 Y95.802 E1.95429
G1 X100.441 Y96.371 E1.97632
G1 X100.665 Y96.322 E1.98509
G1 X101.957 Y98.535 E2.08317
G1 X101.807 Y98.704 E2.09183
G1 X102.254 Y99.054 E2.11358
G1 X102.539 Y99.553 E2.13559
G1 X102.731 Y99.427 E2.14435
G1 X104.364 Y100.721 E2.22413
G1 X97.643 Y100.721 E2.48142
G1 X94.221 Y86.219 F7800.000
G1 X94.221 Y84.404 E2.55091 F720.000
G1 X103.158 Y84.404 E2.89308
G1 X102.611 Y85.256 E2.93183
G1 X102.140 Y85.586 E2.95384 F720.000
G1 X102.283 Y85.764 E2.96260
G1 X100.780 Y88.055 E3.06747
G1 X100.443 Y87.240 E3.10122
G1 X98.000 Y86.228 E3.20246
G1 X95.557 Y87.240 E3.30370
G1 X94.631 Y89.477 E3.39639
G1 X94.221 Y89.396 E3.41237
G1 X94.221 Y86.279 E3.53169
G1 X93.586 Y86.279 F7800.000
G1 X93.586 Y83.769 E3.62780 F720.000
G1 X105.190 Y83.769 E4.07208 F720.000
G1 X105.304 Y84.120 E4.08622
G1 X103.060 Y85.717 E4.19168
G1 X102.083 Y87.249 E4.26124
G1 X101.147 Y88.639 E4.32538
G1 X101.007 Y89.324 E4.35215
G1 X100.633 Y89.359 E4.36654
G1 X99.956 Y87.727 E4.43421
G1 X98.000 Y86.916 E4.51528
G1 X96.044 Y87.727 E4.59636
G1 X95.233 Y89.683 E4.67743
G1 X96.044 Y91.640 E4.75851
G1 X98.000 Y92.450 E4.83959
G1 X99.956 Y91.640 E4.92066
G1 X100.126 Y91.231 E4.93759
G1 X100.570 Y91.372 E4.95544
G1 X100.402 Y92.124 E4.98495
G1 X100.713 Y93.914 E5.05451
G1 X100.969 Y95.606 E5.12004
G1 X101.905 Y97.163 E5.18959
G1 X102.755 Y98.649 E5.25513
G1 X104.191 Y99.762 E5.32468
G1 X106.156 Y101.357 E5.42156
G1 X93.586 Y101.357 E5.90282
G1 X93.586 Y86.339 E6.47778
G1 F1800.000 E5.47778
G92 E0
G1 X125.779 Y98.321 F7800.000
G1 E1.00000 F1800.000
G1 X125.779 Y100.721 E1.09188 F720.000
G1 X116.632 Y100.721 E1.44208
G1 X116.375 Y100.241 E1.46290
G1 X118.149 Y98.393 E1.56099
G1 X118.353 Y98.492 E1.56964
G1 X118.567 Y97.966 E1.59137
G1 X118.969 Y97.555 E1.61339
G1 X118.796 Y97.405 E1.62216
G1 X119.782 Y95.042 E1.72022
G1 X120.007 Y95.060 E1.72888
G1 X120.017 Y94.492 E1.75063
G1 X120.244 Y93.963 E1.77264
G1 X120.028 Y93.887 E1.78140
G1 X120.055 Y92.332 E1.84093
G1 X122.000 Y93.138 E1.92152
G1 X124.443 Y92.126 E2.02276
G1 X125.369 Y89.889 E2.11546
G1 X125.779 Y89.971 E2.13143
G1 X125.779 Y98.261 E2.44886 F720.000
G1 F1800.000 E1.44886
G92 E0
G1 X119.800 Y84.404 F7800.000
G1 E1.00000 F1800.000
G1 X125.779 Y84.404 E1.22890 F720.000
G1 X125.779 Y89.396 E1.41999
G1 X125.369 Y89.477 E1.43597 F720.000
G1 X124.443 Y87.240 E1.52867
G1 X122.000 Y86.228 E1.62990
G1 X119.557 Y87.240 E1.73114
G1 X119.345 Y87.751 E1.75232
G1 X118.846 Y87.184 E1.78127
G1 X118.657 Y86.641 E1.80327
G1 X118.446 Y86.730 E1.81203
G1 X116.769 Y84.793 E1.91011
G1 X117.004 Y84.404 E1.92749
G1 X119.740 Y84.404 E2.03224
G1 X119.740 Y83.769 F7800.000
G1 X126.414 Y83.769 E2.28777 F720.000
G1 X126.414 Y101.357 E2.96115
G1 X113.913 Y101.357 E3.43979
G1 X113.823 Y100.960 E3.45535
G1 X115.603 Y100.145 E3.53032
G1 X116.845 Y98.819 E3.59987
G1 X118.041 Y97.595 E3.66541
G1 X118.719 Y95.909 E3.73496
G1 X119.393 Y94.336 E3.80049
G1 X119.416 Y92.519 E3.87004
G1 X119.459 Y91.276 E3.91766
G1 X119.863 Y91.203 E3.93336
G1 X120.044 Y91.640 E3.95143
G1 X122.000 Y92.450 E4.03251
G1 X123.956 Y91.640 E4.11358
G1 X124.767 Y89.683 E4.19466
G1 X123.956 Y87.727 E4.27573
G1 X122.000 Y86.916 E4.35681
G1 X120.044 Y87.727 E4.43788
G1 X119.138 Y89.913 E4.52850
G1 X118.279 Y87.490 E4.62694
G1 X117.073 Y86.132 E4.69649
G1 X115.992 Y84.851 E4.76064
G1 X114.656 Y84.156 E4.81829
G1 X114.751 Y83.769 E4.83357
G1 X119.680 Y83.769 E5.02229 F720.000
G1 X119.680 Y83.133 F7800.000
G1 X126.466 Y83.133 E5.28208 F504.000
G1 X126.708 Y83.181 E5.29154
G1 X126.884 Y83.299 E5.29965
G1 X127.002 Y83.475 E5.30776
G1 X127.050 Y83.718 E5.31722
G1 X127.050 Y101.992 E6.01689
G1 X92.950 Y101.992 E7.32244
G1 X92.950 Y83.718 E8.02211
G1 X92.998 Y83.475 E8.03157
G1 X93.116 Y83.299 E8.03968
G1 X93.292 Y83.181 E8.04779
G1 X93.534 Y83.133 E8.05725
G1 X108.767 Y83.133 E8.64043
G1 X108.824 Y83.576 E8.65752
G1 X106.734 Y84.112 E8.74014 F504.000
G1 X107.105 Y85.309 E8.78812
G1 X107.250 Y85.895 E8.81120
G1 X106.821 Y86.099 E8.82941
G1 X106.464 Y85.609 E8.85262
G1 X105.785 Y84.556 E8.90059
G1 X103.979 Y85.848 E8.98560
G1 X104.757 Y86.831 E9.03358
G1 X105.104 Y87.324 E9.05666
G1 X104.777 Y87.670 E9.07488
G1 X104.267 Y87.342 E9.09808
G1 X103.254 Y86.605 E9.14606
G1 X102.037 Y88.462 E9.23107
G1 X103.117 Y89.097 E9.27905
G1 X103.619 Y89.432 E9.30213
G1 X103.439 Y89.873 E9.32035
G1 X102.845 Y89.751 E9.34355
G1 X101.634 Y89.430 E9.39153
G1 X101.170 Y91.602 E9.47654
G1 X102.407 Y91.803 E9.52452
G1 X102.996 Y91.934 E9.54760
G1 X102.987 Y92.410 E9.56581
G1 X102.390 Y92.511 E9.58901
G1 X101.144 Y92.649 E9.63700
G1 X101.496 Y94.842 E9.72201
G1 X102.722 Y94.583 E9.76999
G1 X103.318 Y94.493 E9.79307
G1 X103.482 Y94.939 E9.81128
G1 X102.962 Y95.249 E9.83448
G1 X101.850 Y95.828 E9.88246
G1 X102.970 Y97.746 E9.96747
G1 X104.020 Y97.061 E10.01545
G1 X104.544 Y96.762 E10.03853
G1 X104.858 Y97.119 E10.05675
G1 X104.484 Y97.596 E10.07995
G1 X103.657 Y98.537 E10.12794
G1 X105.394 Y99.920 E10.21295
G1 X106.126 Y98.903 E10.26093
G1 X106.506 Y98.435 E10.28401
G1 X106.928 Y98.654 E10.30222
G1 X106.752 Y99.234 E10.32542
G1 X106.321 Y100.411 E10.37340
G1 X108.440 Y101.073 E10.45841
G1 X108.755 Y99.860 E10.50639
G1 X108.940 Y99.286 E10.52947
G1 X109.413 Y99.338 E10.54768
G1 X109.458 Y99.943 E10.57088
G1 X109.481 Y101.196 E10.61886
G1 X111.697 Y101.048 E10.70388
G1 X111.552 Y99.803 E10.75186
G1 X111.517 Y99.201 E10.77494
G1 X111.977 Y99.079 E10.79315
G1 X112.238 Y99.626 E10.81635
G1 X112.711 Y100.786 E10.86433
G1 X114.724 Y99.847 E10.94934
G1 X114.139 Y98.739 E10.99731
G1 X113.889 Y98.190 E11.02040
G1 X114.274 Y97.910 E11.03861
G1 X114.715 Y98.326 E11.06181
G1 X115.576 Y99.237 E11.10979
G1 X117.113 Y97.635 E11.19481
G1 X116.168 Y96.812 E11.24279
G1 X115.736 Y96.391 E11.26587
G1 X115.994 Y95.991 E11.28408
G1 X116.555 Y96.219 E11.30728
G1 X117.687 Y96.757 E11.35526
G1 X118.542 Y94.708 E11.44027
G1 X117.363 Y94.283 E11.48825
G1 X116.809 Y94.046 E11.51133
G1 X116.904 Y93.580 E11.52955
G1 X117.510 Y93.590 E11.55275
G1 X118.760 Y93.683 E11.60073
G1 X118.817 Y91.463 E11.68574
G1 X117.564 Y91.492 E11.73372
G1 X116.962 Y91.472 E11.75681
G1 X116.882 Y91.003 E11.77502
G1 X117.451 Y90.793 E11.79822
G1 X118.650 Y90.429 E11.84620
G1 X117.901 Y88.338 E11.93121
G1 X116.743 Y88.818 E11.97919
G1 X116.174 Y89.016 E12.00227
G1 X115.931 Y88.607 E12.02048
G1 X116.386 Y88.207 E12.04368
G1 X117.372 Y87.433 E12.09167
G1 X115.918 Y85.755 E12.17667
G1 X115.012 Y86.620 E12.22465
G1 X114.553 Y87.011 E12.24773
G1 X114.178 Y86.718 E12.26595
G1 X114.458 Y86.180 E12.28915
G1 X115.098 Y85.103 E12.33713
G1 X113.136 Y84.062 E12.42215
G1 X112.604 Y85.197 E12.47012
G1 X112.317 Y85.727 E12.49320
G1 X111.862 Y85.589 E12.51142
G1 X111.928 Y84.986 E12.53462
G1 X112.136 Y83.750 E12.58260
G1 X110.896 Y83.614 E12.63035
G1 X110.922 Y83.133 E12.64877
G1 X119.620 Y83.133 E12.98178
G1 X108.549 Y83.286 F7800.000
G1 F1800.000 E11.98178
G92 E0
G1 X110.143 Y93.029 F7800.000
G1 E1.00000 F1800.000
G1 X110.000 Y93.057 E1.00558 F720.000
G1 X109.729 Y93.003 E1.01615
G1 X109.500 Y92.850 E1.02671
G1 X109.347 Y92.621 E1.03727
G1 X109.293 Y92.350 E1.04783
G1 X109.347 Y92.079 E1.05840
G1 X109.500 Y91.850 E1.06896
G1 X109.729 Y91.697 E1.07952
G1 X110.000 Y91.643 E1.09008 F720.000
G1 X110.271 Y91.697 E1.10065
G1 X110.500 Y91.850 E1.11121
G1 X110.653 Y92.079 E1.12177
G1 X110.707 Y92.350 E1.13234
G1 X110.653 Y92.621 E1.14290
G1 X110.500 Y92.850 E1.15346
G1 X110.271 Y93.003 E1.16402
G1 X110.202 Y93.017 E1.16671
G1 X110.326 Y93.640 F7800.000
G1 X110.000 Y93.705 E1.17943 F504.000
G1 X109.481 Y93.602 E1.19967
G1 X109.042 Y93.308 E1.21992
G1 X108.748 Y92.869 E1.24016
G1 X108.645 Y92.350 E1.26040
G1 X108.748 Y91.831 E1.28065
G1 X109.042 Y91.392 E1.30089
G1 X109.481 Y91.098 E1.32113
G1 X110.000 Y90.995 E1.34138
G1 X110.519 Y91.098 E1.36163
G1 X110.958 Y91.392 E1.38187 F504.000
G1 X111.252 Y91.831 E1.40211
G1 X111.355 Y92.350 E1.42236
G1 X111.252 Y92.869 E1.44260
G1 X110.958 Y93.308 E1.46284
G1 X110.519 Y93.602 E1.48309
G1 X110.385 Y93.629 E1.48832
G1 X110.762 Y91.415 F7800.000
G1 F1800.000 E0.48832
G92 E0
G1 X109.768 Y85.337 F7800.000
G1 E1.00000 F1800.000
G1 X109.293 Y85.373 E1.01821 F504.000
G1 X109.137 Y84.787 E1.04141
G1 X108.800 Y83.133 E1.10604
G1 X109.953 Y83.133 E1.15020
G1 X109.880 Y84.285 E1.19441
G1 X109.776 Y85.278 E1.23261 F504.000
G1 X109.548 Y84.062 F7800.000
G1 F1800.000 E0.23261
G92 E0
G1 X125.292 Y91.660 F7800.000
G1 E1.00000 F1800.000
G1 X125.338 Y91.706 E1.00246 F1080.000
G1 X124.891 Y92.197 E1.02790
G1 X125.338 Y92.644 E1.05212
G1 X125.338 Y93.583 E1.08806
G1 X124.383 Y92.628 E1.13977
G1 X123.719 Y92.903 E1.16728
G1 X125.338 Y94.522 E1.25493
G1 X125.338 Y95.460 E1.29087
G1 X123.055 Y93.178 E1.41446
G1 X122.392 Y93.453 E1.44196
G1 X125.338 Y96.399 E1.60149
G1 X125.338 Y97.338 E1.63743
G1 X121.343 Y93.343 E1.85374
G1 X120.814 Y93.752 E1.87936
G1 X125.338 Y98.277 E2.12433
G1 X125.338 Y99.215 E2.16027
G1 X120.532 Y94.409 E2.42048
G1 X120.729 Y93.668 E2.44986
G1 X120.477 Y93.416 E2.46352
G1 X120.445 Y95.261 E2.53417
G1 X125.338 Y100.154 E2.79911
G1 X124.526 Y100.280 E2.83058
G1 X119.973 Y95.728 E3.07707
G1 X119.697 Y96.390 E3.10455
G1 X123.587 Y100.280 E3.31517
G1 X122.648 Y100.280 E3.35111
G1 X119.420 Y97.053 E3.52588
G1 X119.288 Y97.859 E3.55716
G1 X121.710 Y100.280 E3.68827
G1 X120.771 Y100.280 E3.72420
G1 X118.873 Y98.383 E3.82695
G1 X118.601 Y99.050 E3.85452
G1 X119.832 Y100.280 E3.92115
G1 X118.893 Y100.280 E3.95709
G1 X117.901 Y99.288 E4.01081
G1 X117.442 Y99.767 E4.03623
G1 X117.955 Y100.280 E4.06401
G1 X117.016 Y100.280 E4.09995
G1 X116.982 Y100.246 E4.10180
G1 F1800.000 E3.10180
G92 E0
G1 X118.356 Y91.006 F7800.000
G1 E1.00000 F1800.000
G1 X119.131 Y90.898 E1.01699 F360.000
G1 X119.255 Y90.842 E1.01995
G1 X119.856 Y90.357 E1.03674
G1 X119.195 Y86.846 F7800.000
G1 X119.243 Y86.893 E1.03933 F1080.000
G1 X119.879 Y86.630 E1.06571
G1 X118.095 Y84.845 E1.16233
G1 X118.995 Y84.845 E1.19680
G1 X120.516 Y86.366 E1.27914
G1 X121.153 Y86.102 E1.30553
G1 X119.896 Y84.845 E1.37359
G1 X120.796 Y84.845 E1.40806
G1 X121.789 Y85.838 E1.46184
G1 X123.028 Y86.177 E1.51102
G1 X121.696 Y84.845 E1.58314
G1 X122.597 Y84.845 E1.61761
G1 X125.338 Y87.586 E1.76603
G1 X124.869 Y87.118 E1.79140
G1 X125.338 Y86.686 E1.81580
G1 X123.497 Y84.845 E1.91547
G1 X124.398 Y84.845 E1.94994
G1 X125.338 Y85.786 E2.00086
G1 X125.338 Y84.885 E2.03533
G1 X125.298 Y84.845 E2.03750
G1 X106.822 Y83.605 F7800.000
G1 X106.276 Y83.671 E2.04945 F360.000
G1 X106.005 Y83.789 E2.05588
G1 X106.421 Y84.680 E2.07725
G1 X104.439 Y84.207 F7800.000
G1 X103.901 Y84.380 E2.08952 F360.000
G1 X103.353 Y84.950 E2.10669
G1 X102.074 Y84.845 F7800.000
G1 X102.125 Y84.896 E2.10944 F1080.000
G1 X101.674 Y85.374 E2.13462
G1 X101.144 Y84.845 E2.16328
G1 X100.215 Y84.845 E2.19888
G1 X101.509 Y86.140 E2.26899
G1 X101.141 Y86.701 E2.29469
G1 X99.285 Y84.845 E2.39520
G1 X98.355 Y84.845 E2.43079
G1 X100.153 Y86.643 E2.52813
G1 X98.566 Y85.985 F7800.000
G1 X97.425 Y84.845 E2.58987 F1080.000
G1 X96.496 Y84.845 E2.62547
G1 X97.577 Y85.926 E2.68401
G1 X96.919 Y86.199 E2.71126
G1 X95.566 Y84.845 E2.78455
G1 X94.669 Y84.878 E2.81890
G1 X96.262 Y86.471 E2.90515
G1 X95.604 Y86.743 E2.93239
G1 X94.662 Y85.801 E2.98342
G1 X94.662 Y86.731 E3.01902
G1 X95.107 Y87.175 E3.04310
G1 X94.662 Y87.660 E3.06829
G1 X94.707 Y87.706 E3.07075
G1 X96.740 Y93.093 F7800.000
G1 X99.992 Y96.345 E3.24680 F1080.000
G1 X101.316 Y98.592 F7800.000
G1 X94.662 Y91.938 E3.60708 F1080.000
G1 X94.662 Y92.860 E3.64240
G1 X102.082 Y100.280 E4.04417
G1 X102.700 Y99.975 E4.07053
G1 X102.864 Y100.139 E4.07941
G1 X101.160 Y100.280 F7800.000
G1 X94.662 Y93.783 E4.43123 F1080.000
G1 X94.662 Y94.705 E4.46655
G1 X100.237 Y100.280 E4.76841
G1 X99.315 Y100.280 E4.80373
G1 X94.662 Y95.628 E5.05565
G1 X94.662 Y96.550 E5.09097
G1 X98.392 Y100.280 E5.29294
G1 X97.470 Y100.280 E5.32826
G1 X94.662 Y97.473 E5.48027
G1 X94.662 Y98.395 E5.51559
G1 X96.547 Y100.280 E5.61766
G1 X95.625 Y100.280 E5.65298
G1 X94.662 Y99.318 E5.70509
G1 X94.662 Y100.240 E5.74041
G1 X94.702 Y100.280 E5.74258
G1 X98.130 Y93.561 F7800.000
G1 X99.618 Y95.048 E5.82311 F1080.000
G1 X99.651 Y94.159 E5.85719
G1 X98.783 Y93.291 E5.90419
G1 X99.475 Y93.060 E5.93211
G1 X99.435 Y93.021 E5.93425
G1 F1800.000 E4.93425
G92 E0
G1 X110.097 Y92.112 F7800.000
G1 E1.00000 F1800.000
G1 X110.238 Y92.253 E1.00764 F1080.000
G1 F1800.000 E0.00764
G92 E0
G1 X108.330 Y101.527 F7800.000
G1 E1.00000 F1800.000
G1 X107.169 Y101.345 E1.02554 F360.000
G1 X106.304 Y100.886 E1.04682
G1 X115.043 Y100.901 F7800.000
G1 X115.443 Y100.814 E1.05572 F360.000
G1 X115.748 Y100.796 E1.06236
G1 X116.206 Y100.599 E1.07319
G1 F1800.000 E0.07319
G92 E0
G1 X112.557 Y79.680 F7800.000
G1 E1.00000 F1800.000
G1 X111.500 Y79.772 E1.04064 F720.000
G1 X110.443 Y79.680 E1.08128
G1 X109.417 Y79.405 E1.12191
G1 X108.455 Y78.957 E1.16255
G1 X107.586 Y78.348 E1.20319
G1 X106.835 Y77.597 E1.24383
G1 X106.226 Y76.728 E1.28447
G1 X105.778 Y75.766 E1.32510
G1 X105.683 Y75.411 E1.33916
G1 X103.744 Y75.069 E1.41455
G1 X103.123 Y73.387 E1.48318
G1 X104.281 Y72.019 E1.55180
G1 X105.603 Y72.252 E1.60319
G1 X105.778 Y71.600 E1.62903
G1 X106.226 Y70.638 E1.66967
G1 X106.835 Y69.769 E1.71030
G1 X107.586 Y69.018 E1.75094
G1 X108.455 Y68.409 E1.79159
G1 X109.417 Y67.961 E1.83222
G1 X110.443 Y67.686 E1.87286
G1 X111.500 Y67.594 E1.91350
G1 X112.449 Y67.677 E1.94998
G1 X112.557 Y67.686 E1.95413 F720.000
G1 X113.583 Y67.961 E1.99477
