; generated by Slic3r 1.0.0RC3 on 2014-03-25 at 09:55:58

; layer_height = 0.3
; perimeters = 3
; top_solid_layers = 2
; bottom_solid_layers = 2
; fill_density = 0.25
; perimeter_speed = 40
; infill_speed = 60
; travel_speed = 130
; nozzle_diameter = 0.4
; filament_diameter = 1.78
; extrusion_multiplier = 1
; perimeters extrusion width = 0.40mm
; infill extrusion width = 0.42mm
; solid infill extrusion width = 0.42mm
; top infill extrusion width = 0.42mm
; first layer extrusion width = 0.70mm

G21 ; set units to millimeters
M107
M190 S85 ; wait for bed temperature to be reached
M104 S242 ; set temperature
G28 ; home all axes
G1 Z5 F5000 ; lift nozzle
M109 S242 ; wait for temperature to be reached
G90 ; use absolute coordinates
G92 E0
M82 ; use absolute distances for extrusion
G1 F1800.000 E-1.00000
G92 E0
G1 Z0.350 F7800.000
G1 X68.350 Y55.590 F7800.000
G1 E1.00000 F1800.000
G1 X69.120 Y54.670 E1.10725 F720.000
G1 X70.040 Y53.900 E1.21451
G1 X70.330 Y53.700 E1.24600
G1 X71.110 Y53.240 E1.32696
G1 X71.940 Y52.890 E1.40748
G1 X99.690 Y43.330 E4.03141
G1 X100.750 Y43.060 E4.12920
G1 X101.850 Y42.960 E4.22795
G1 X122.050 Y42.960 E6.03382
G1 X123.670 Y43.170 E6.17986
G1 X125.190 Y43.760 E6.32562
G1 X145.590 Y54.730 E8.39634
G1 X147.070 Y55.810 E8.56013
G1 X148.200 Y57.250 E8.72377
G1 X152.200 Y64.180 E9.43911
G1 X152.760 Y65.440 E9.56238
G1 X153.050 Y66.780 E9.68494
G1 X153.050 Y68.150 E9.80742
G1 X148.450 Y114.750 E13.99369
G1 X148.130 Y116.230 E14.12906
G1 X147.480 Y117.600 E14.26462
G1 X146.540 Y118.790 E14.40019
G1 X140.240 Y125.090 E15.19670
G1 X139.240 Y125.920 E15.31288
G1 X138.090 Y126.530 E15.42926
G1 X136.840 Y126.910 E15.54606
G1 X135.550 Y127.040 E15.66197
G1 X88.350 Y127.040 E19.88163
G1 X87.060 Y126.910 E19.99754
G1 X85.810 Y126.530 E20.11434
G1 X84.660 Y125.920 E20.23071
G1 X83.660 Y125.090 E20.34690
G1 X77.360 Y118.790 E21.14341
G1 X76.520 Y117.770 E21.26153
G1 X75.900 Y116.600 E21.37991
G1 X67.460 Y95.840 E23.38336
G1 X67.230 Y95.160 E23.44754
G1 X67.070 Y94.460 E23.51173
G1 X67.010 Y94.110 E23.54348
G1 X66.910 Y92.990 E23.64400
G1 X66.910 Y59.990 E26.59419
G1 X66.940 Y59.410 E26.64611
G1 X67.080 Y58.500 E26.72842
G1 X67.470 Y57.130 E26.85576
G1 X68.150 Y55.880 E26.98298
G1 X68.296 Y55.668 E27.00595
G1 F1800.000 E26.00595
G92 E0
G1 X114.329 Y57.159 F7800.000
G1 E1.00000 F1800.000
G1 X121.571 Y57.159 E1.64747 F540.000
G1 X121.571 Y67.841 E2.60238
G1 X114.329 Y67.841 E3.24985
G1 X114.329 Y57.255 E4.19623
G1 X114.964 Y57.795 F7800.000
G1 X120.936 Y57.795 E4.73006 F540.000
G1 X120.936 Y67.205 E5.57131
G1 X114.964 Y67.205 E6.10514
G1 X114.964 Y57.890 E6.93787
G1 X115.600 Y58.431 F7800.000
G1 X120.300 Y58.431 E7.35805 F540.000
G1 X120.300 Y66.569 E8.08565
G1 X115.600 Y66.569 E8.50583
G1 X115.600 Y58.526 E9.22491
G1 X115.600 Y57.795 F7800.000
G1 X109.571 Y57.159 F7800.000
G1 X109.571 Y67.841 E10.17982 F540.000
G1 X102.329 Y67.841 E10.82729
G1 X102.329 Y57.159 E11.78219
G1 X109.476 Y57.159 E12.42114
G1 X108.936 Y57.795 F7800.000
G1 X108.936 Y67.205 E13.26240 F540.000
G1 X102.964 Y67.205 E13.79622
G1 X102.964 Y57.795 E14.63748
G1 X108.840 Y57.795 E15.16278
G1 X108.300 Y58.431 F7800.000
G1 X108.300 Y66.569 E15.89039 F540.000
G1 X103.600 Y66.569 E16.31057
G1 X103.600 Y58.431 E17.03817
G1 X108.205 Y58.431 E17.44983
G1 X108.936 Y58.431 F7800.000
G1 F1800.000 E16.44983
G92 E0
G1 X99.950 Y83.045 F7800.000
G1 E1.00000 F1800.000
G1 X102.393 Y84.057 E1.23639 F540.000
G1 X103.405 Y86.500 E1.47278
G1 X102.393 Y88.943 E1.70917
G1 X99.950 Y89.955 E1.94557
G1 X97.507 Y88.943 E2.18196
G1 X96.495 Y86.500 E2.41835
G1 X97.507 Y84.057 E2.65474
G1 X99.862 Y83.082 E2.88261
G1 X99.950 Y83.733 F7800.000
G1 X101.906 Y84.544 E3.07193 F540.000
G1 X102.717 Y86.500 E3.26124
G1 X101.906 Y88.456 E3.45056
G1 X99.950 Y89.267 E3.63987
G1 X97.994 Y88.456 E3.82919
G1 X97.183 Y86.500 E4.01851
G1 X97.994 Y84.544 E4.20783
G1 X99.862 Y83.770 E4.38862
G1 X99.950 Y84.421 F7800.000
G1 X101.420 Y85.030 E4.53086 F540.000
G1 X102.029 Y86.500 E4.67310
G1 X101.420 Y87.970 E4.81535
G1 X99.950 Y88.579 E4.95759
G1 X98.480 Y87.970 E5.09983
G1 X97.871 Y86.500 E5.24207
G1 X98.480 Y85.030 E5.38431
G1 X99.862 Y84.458 E5.51803
G1 X100.337 Y83.917 F7800.000
G1 X120.495 Y86.500 F7800.000
G1 X121.507 Y84.057 E5.75443 F540.000
G1 X123.950 Y83.045 E5.99081
G1 X126.393 Y84.057 E6.22720
G1 X127.405 Y86.500 E6.46360
G1 X126.393 Y88.943 E6.69999
G1 X123.950 Y89.955 E6.93638
G1 X121.507 Y88.943 E7.17277
G1 X120.532 Y86.588 E7.40064
G1 X121.183 Y86.500 F7800.000
G1 X121.994 Y84.544 E7.58995 F540.000
G1 X123.950 Y83.733 E7.77927
G1 X125.906 Y84.544 E7.96858
G1 X126.717 Y86.500 E8.15790
G1 X125.906 Y88.456 E8.34722
G1 X123.950 Y89.267 E8.53653
G1 X121.994 Y88.456 E8.72585
G1 X121.220 Y86.588 E8.90664
G1 X121.871 Y86.500 F7800.000
G1 X122.480 Y85.030 E9.04889 F540.000
G1 X123.950 Y84.421 E9.19113
G1 X125.420 Y85.030 E9.33337
G1 X126.029 Y86.500 E9.47561
G1 X125.420 Y87.970 E9.61785
G1 X123.950 Y88.579 E9.76009
G1 X122.480 Y87.970 E9.90233
G1 X121.908 Y86.588 E10.03605
G1 X121.367 Y86.113 F7800.000
G1 X116.156 Y87.758 F7800.000
G1 X116.503 Y89.500 E10.19488 F540.000
G1 X116.156 Y91.242 E10.35370
G1 X115.169 Y92.719 E10.51251
G1 X113.692 Y93.706 E10.67133
G1 X111.950 Y94.053 E10.83015
G1 X110.208 Y93.706 E10.98897
G1 X108.731 Y92.719 E11.14778
G1 X107.744 Y91.242 E11.30660
G1 X107.397 Y89.500 E11.46542
G1 X107.744 Y87.758 E11.62425
G1 X108.731 Y86.281 E11.78306
G1 X110.208 Y85.294 E11.94188
G1 X111.950 Y84.947 E12.10070
G1 X113.692 Y85.294 E12.25952
G1 X115.169 Y86.281 E12.41833
G1 X116.104 Y87.678 E12.56863
G1 X115.558 Y88.006 F7800.000
G1 X115.855 Y89.500 E12.70484 F540.000
G1 X115.558 Y90.994 E12.84105
G1 X114.711 Y92.261 E12.97727
G1 X113.444 Y93.108 E13.11348
G1 X111.950 Y93.405 E13.24969
G1 X110.456 Y93.108 E13.38590
G1 X109.189 Y92.261 E13.52211
G1 X108.342 Y90.994 E13.65832
G1 X108.045 Y89.500 E13.79454
G1 X108.342 Y88.006 E13.93075
G1 X109.189 Y86.739 E14.06696
G1 X110.456 Y85.892 E14.20318
G1 X111.950 Y85.595 E14.33939
G1 X113.444 Y85.892 E14.47560
G1 X114.711 Y86.739 E14.61181
G1 X115.505 Y87.926 E14.73950
G1 X114.959 Y88.254 F7800.000
G1 X115.207 Y89.500 E14.85311 F540.000
G1 X114.959 Y90.746 E14.96671
G1 X114.253 Y91.803 E15.08032
G1 X113.196 Y92.509 E15.19393
G1 X111.950 Y92.757 E15.30753
G1 X110.704 Y92.509 E15.42114
G1 X109.647 Y91.803 E15.53475
G1 X108.941 Y90.746 E15.64835
G1 X108.693 Y89.500 E15.76196
G1 X108.941 Y88.254 E15.87557
G1 X109.647 Y87.197 E15.98917
G1 X110.704 Y86.491 E16.10278
G1 X111.950 Y86.243 E16.21638
G1 X113.196 Y86.491 E16.32999
G1 X114.253 Y87.197 E16.44360
G1 X114.906 Y88.174 E16.54868
G1 X115.582 Y88.378 F7800.000
G1 X126.829 Y102.159 F7800.000
G1 X134.071 Y102.159 E17.19615 F540.000
G1 X134.071 Y112.841 E18.15105
G1 X126.829 Y112.841 E18.79853
G1 X126.829 Y102.255 E19.74491
G1 X127.464 Y102.795 F7800.000
G1 X133.436 Y102.795 E20.27873 F540.000
G1 X133.436 Y112.205 E21.11999
G1 X127.464 Y112.205 E21.65381
G1 X127.464 Y102.890 E22.48654
G1 X128.100 Y103.431 F7800.000
G1 X132.800 Y103.431 E22.90672 F540.000
G1 X132.800 Y111.569 E23.63433
G1 X128.100 Y111.569 E24.05450
G1 X128.100 Y103.526 E24.77359
G1 X128.100 Y102.795 F7800.000
G1 X122.071 Y102.159 F7800.000
G1 X122.071 Y112.841 E25.72849 F540.000
G1 X114.829 Y112.841 E26.37596
G1 X114.829 Y102.159 E27.33086
G1 X121.976 Y102.159 E27.96981
G1 X121.436 Y102.795 F7800.000
G1 X121.436 Y112.205 E28.81107 F540.000
G1 X115.464 Y112.205 E29.34489
G1 X115.464 Y102.795 E30.18615
G1 X121.340 Y102.795 E30.71145
G1 X120.800 Y103.431 F7800.000
G1 X120.800 Y111.569 E31.43906 F540.000
G1 X116.100 Y111.569 E31.85923
G1 X116.100 Y103.431 E32.58684
G1 X120.705 Y103.431 E32.99849
G1 X121.436 Y103.431 F7800.000
G1 F1800.000 E31.99849
G92 E0
G1 X109.071 Y102.159 F7800.000
G1 E1.00000 F1800.000
G1 X109.071 Y112.841 E1.95490 F540.000
G1 X101.829 Y112.841 E2.60238
G1 X101.829 Y102.159 E3.55728
G1 X108.976 Y102.159 E4.19623
G1 X108.436 Y102.795 F7800.000
G1 X108.436 Y112.205 E5.03748 F540.000
G1 X102.464 Y112.205 E5.57131
G1 X102.464 Y102.795 E6.41256
G1 X108.340 Y102.795 E6.93786
G1 X107.800 Y103.431 F7800.000
G1 X107.800 Y111.569 E7.66547 F540.000
G1 X103.100 Y111.569 E8.08565
G1 X103.100 Y103.431 E8.81325
G1 X107.705 Y103.431 E9.22491
G1 X108.436 Y103.431 F7800.000
G1 F1800.000 E8.22491
G92 E0
G1 X97.071 Y102.159 F7800.000
G1 E1.00000 F1800.000
G1 X97.071 Y112.841 E1.95490 F540.000
G1 X89.829 Y112.841 E2.60238
G1 X89.829 Y102.159 E3.55728
G1 X96.976 Y102.159 E4.19623
G1 X96.436 Y102.795 F7800.000
G1 X96.436 Y112.205 E5.03748 F540.000
G1 X90.464 Y112.205 E5.57131
G1 X90.464 Y102.795 E6.41256
G1 X96.340 Y102.795 E6.93786
G1 X95.800 Y103.431 F7800.000
G1 X95.800 Y111.569 E7.66547 F540.000
G1 X91.100 Y111.569 E8.08565
G1 X91.100 Y103.431 E8.81325
G1 X95.705 Y103.431 E9.22491
G1 X96.436 Y103.431 F7800.000
G1 X96.171 Y96.221 F7800.000
G1 X96.171 Y86.533 E10.09101 F720.000
G1 X96.338 Y86.500 E10.10623
G1 X96.171 Y86.467 E10.12144
G1 X96.171 Y57.572 E12.70467
G1 X102.522 Y51.221 E13.50754
G1 X121.378 Y51.221 E15.19334
G1 X127.729 Y57.572 E15.99621
G1 X127.729 Y86.467 E18.57943
G1 X127.562 Y86.500 E18.59464
G1 X127.729 Y86.533 E18.60986
G1 X127.729 Y96.221 E19.47597
G1 X140.229 Y96.221 E20.59346
G1 X140.229 Y113.428 E22.13178
G1 X134.878 Y118.779 E22.80822
G1 X89.022 Y118.779 E26.90780
G1 X83.671 Y113.428 E27.58424
G1 X83.671 Y96.221 E29.12256
G1 X96.076 Y96.221 E30.23153
G1 X95.536 Y95.586 F7800.000
G1 X95.536 Y57.308 E33.65351 F720.000
G1 X102.258 Y50.586 E34.50345
G1 X121.642 Y50.586 E36.23633
G1 X128.364 Y57.308 E37.08627
G1 X128.364 Y95.586 E40.50825
G1 X140.864 Y95.586 E41.62575
G1 X140.864 Y113.692 E43.24443
G1 X135.142 Y119.414 E43.96794
G1 X88.758 Y119.414 E48.11460
G1 X83.036 Y113.692 E48.83812
G1 X83.036 Y95.586 E50.45679
G1 X95.440 Y95.586 E51.56577
G1 X94.900 Y94.950 F7800.000
G1 X94.900 Y57.045 E54.95446 F504.000
G1 X101.995 Y49.950 E55.85148
G1 X121.905 Y49.950 E57.63143
G1 X129.000 Y57.045 E58.52844
G1 X129.000 Y94.950 E61.91714
G1 X140.916 Y94.950 E62.98238
G1 X141.158 Y94.998 E63.00446
G1 X141.334 Y95.116 E63.02341
G1 X141.452 Y95.292 E63.04236
G1 X141.500 Y95.534 E63.06445
G1 X141.500 Y113.955 E64.71124
G1 X135.405 Y120.050 E65.48182
G1 X88.495 Y120.050 E69.67556
G1 X82.400 Y113.955 E70.44615
G1 X82.400 Y95.534 E72.09294
G1 X82.448 Y95.292 E72.11502
G1 X82.566 Y95.116 E72.13397
G1 X82.742 Y94.998 E72.15292
G1 X82.984 Y94.950 E72.17500
G1 X94.805 Y94.950 E73.23173
G1 X95.536 Y94.950 F7800.000
G1 F1800.000 E72.23173
G92 E0
G1 X136.014 Y71.719 F7800.000
G1 E1.00000 F1800.000
G1 X133.578 Y67.500 E1.43556 F540.000
G1 X135.521 Y64.135 E1.78297
G1 X136.014 Y63.281 E1.87112
G1 X140.886 Y63.281 E2.30667
G1 X143.322 Y67.500 E2.74223
G1 X140.886 Y71.719 E3.17779
G1 X136.109 Y71.719 E3.60483
G1 X136.381 Y71.084 F7800.000
G1 X134.312 Y67.500 E3.97477 F540.000
G1 X136.071 Y64.452 E4.28938
G1 X136.381 Y63.916 E4.34472
G1 X140.519 Y63.916 E4.71466
G1 X142.588 Y67.500 E5.08461
G1 X140.519 Y71.084 E5.45455
G1 X136.476 Y71.084 E5.81597
G1 X136.748 Y70.448 F7800.000
G1 X135.046 Y67.500 E6.12030 F540.000
G1 X136.622 Y64.770 E6.40210
G1 X136.748 Y64.552 E6.42463
G1 X140.152 Y64.552 E6.72896
G1 X141.854 Y67.500 E7.03329
G1 X140.152 Y70.448 E7.33762
G1 X136.843 Y70.448 E7.63342
G1 X136.151 Y70.665 F7800.000
G1 X135.386 Y72.807 F7800.000
G1 X132.322 Y67.500 E8.18126 F540.000
G1 X135.386 Y62.193 E8.72910
G1 X141.514 Y62.193 E9.27693
G1 X144.578 Y67.500 E9.82477
G1 X141.514 Y72.807 E10.37261
G1 X135.481 Y72.807 E10.91192
G1 X135.019 Y73.443 F7800.000
G1 X131.588 Y67.500 E11.52537 F720.000
G1 X135.019 Y61.557 E12.13882
G1 X141.881 Y61.557 E12.75227
G1 X145.312 Y67.500 E13.36572
G1 X141.881 Y73.443 E13.97917
G1 X135.114 Y73.443 E14.58410
G1 X134.652 Y74.078 F7800.000
G1 X130.854 Y67.500 E15.26317 F504.000
G1 X134.652 Y60.922 E15.94223
G1 X142.248 Y60.922 E16.62130
G1 X146.046 Y67.500 E17.30036
G1 X142.248 Y74.078 E17.97943
G1 X134.747 Y74.078 E18.64997
G1 X134.762 Y73.452 F7800.000
G1 F1800.000 E17.64997
G92 E0
G1 X81.217 Y64.500 F7800.000
G1 E1.00000 F1800.000
G1 X80.406 Y66.456 E1.18932 F540.000
G1 X78.450 Y67.267 E1.37863
G1 X76.494 Y66.456 E1.56795
G1 X75.683 Y64.500 E1.75727
G1 X76.494 Y62.544 E1.94658
G1 X78.450 Y61.733 E2.13590
G1 X80.406 Y62.544 E2.32521
G1 X81.180 Y64.412 E2.50601
G1 X80.529 Y64.500 F7800.000
G1 X79.920 Y65.970 E2.64825 F540.000
G1 X78.450 Y66.579 E2.79049
G1 X76.980 Y65.970 E2.93273
G1 X76.371 Y64.500 E3.07497
G1 X76.980 Y63.030 E3.21721
G1 X78.450 Y62.421 E3.35946
G1 X79.920 Y63.030 E3.50170
G1 X80.492 Y64.412 E3.63542
G1 X81.033 Y64.887 F7800.000
G1 X83.372 Y66.277 F7800.000
G1 X83.372 Y62.723 E3.95316 F540.000
G1 X83.812 Y62.469 E3.99860
G1 X86.450 Y60.946 E4.27090
G1 X89.528 Y62.723 E4.58864
G1 X89.528 Y66.277 E4.90638
G1 X86.450 Y68.054 E5.22412
G1 X83.455 Y66.325 E5.53333
G1 X82.746 Y66.167 F7800.000
G1 X82.783 Y68.650 F7800.000
G1 X83.552 Y68.687 E5.60220 F504.000
G1 X84.315 Y68.800 E5.67108
G1 X85.062 Y68.988 E5.73995
G1 X85.787 Y69.247 E5.80882
G1 X86.484 Y69.577 E5.87770
G1 X87.144 Y69.973 E5.94658
G1 X87.763 Y70.432 E6.01545
G1 X88.334 Y70.949 E6.08432
G1 X88.851 Y71.520 E6.15320
G1 X89.541 Y72.450 E6.25669
G1 X90.036 Y73.496 E6.36015
G1 X90.295 Y74.221 E6.42903
G1 X90.483 Y74.968 E6.49790
G1 X90.596 Y75.731 E6.56678
G1 X90.633 Y76.500 E6.63565
G1 X90.596 Y77.269 E6.70452
G1 X90.483 Y78.032 E6.77340
G1 X90.295 Y78.779 E6.84226
G1 X90.036 Y79.504 E6.91114
G1 X89.706 Y80.201 E6.98002
G1 X89.310 Y80.862 E7.04890
G1 X88.719 Y81.659 E7.13763
G1 X88.711 Y81.635 E7.13986
G1 X88.334 Y82.051 E7.19007
G1 X87.763 Y82.568 E7.25894
G1 X87.144 Y83.027 E7.32782
G1 X86.484 Y83.423 E7.39669
G1 X85.787 Y83.753 E7.46557
G1 X85.062 Y84.012 E7.53444
G1 X84.315 Y84.200 E7.60331
G1 X83.552 Y84.313 E7.67219
G1 X82.783 Y84.350 E7.74106
G1 X82.014 Y84.313 E7.80993
G1 X81.251 Y84.200 E7.87881
G1 X80.504 Y84.012 E7.94768
G1 X79.721 Y83.732 E8.02201
G1 X79.082 Y83.423 E8.08546
G1 X78.422 Y83.027 E8.15433
G1 X77.803 Y82.568 E8.22320
G1 X77.232 Y82.051 E8.29208
G1 X76.715 Y81.480 E8.36095
G1 X76.256 Y80.861 E8.42982
G1 X75.860 Y80.201 E8.49870
G1 X75.530 Y79.504 E8.56758
G1 X75.271 Y78.779 E8.63645
G1 X75.083 Y78.032 E8.70532
G1 X74.970 Y77.269 E8.77420
G1 X74.897 Y75.778 E8.90766
G1 X74.957 Y75.822 E8.91426
G1 X75.083 Y74.968 E8.99138
G1 X75.271 Y74.221 E9.06025
G1 X75.530 Y73.496 E9.12913
G1 X75.860 Y72.799 E9.19801
G1 X76.256 Y72.139 E9.26688
G1 X76.715 Y71.520 E9.33575
G1 X77.232 Y70.949 E9.40463
G1 X77.803 Y70.432 E9.47350
G1 X78.422 Y69.973 E9.54237
G1 X79.082 Y69.577 E9.61125
G1 X79.779 Y69.247 E9.68012
G1 X81.024 Y68.801 E9.79840
G1 X81.013 Y68.836 E9.80163
G1 X82.014 Y68.687 E9.89202
G1 X82.688 Y68.654 E9.95237
G1 X83.110 Y68.104 F7800.000
G1 F1800.000 E8.95237
G92 E0
G1 X78.450 Y85.733 F7800.000
G1 E1.00000 F1800.000
G1 X80.406 Y86.544 E1.18932 F540.000
G1 X81.217 Y88.500 E1.37863
G1 X80.406 Y90.456 E1.56795
G1 X78.450 Y91.267 E1.75727
G1 X76.494 Y90.456 E1.94658
G1 X75.683 Y88.500 E2.13590
G1 X76.494 Y86.544 E2.32522
G1 X78.362 Y85.770 E2.50601
G1 X78.450 Y86.421 F7800.000
G1 X79.920 Y87.030 E2.64825 F540.000
G1 X80.529 Y88.500 E2.79049
G1 X79.920 Y89.970 E2.93274
G1 X78.450 Y90.579 E3.07498
G1 X76.980 Y89.970 E3.21722
G1 X76.371 Y88.500 E3.35946
G1 X76.980 Y87.030 E3.50170
G1 X78.362 Y86.458 E3.63542
G1 X78.837 Y85.917 F7800.000
G1 X83.372 Y86.723 F7800.000
G1 X86.450 Y84.946 E3.95316 F540.000
G1 X89.528 Y86.723 E4.27090
G1 X89.528 Y90.277 E4.58864
G1 X86.450 Y92.054 E4.90638
G1 X83.372 Y90.277 E5.22412
G1 X83.372 Y86.818 E5.53334
G1 X83.155 Y86.126 F7800.000
G1 X88.202 Y84.489 F7800.000
G1 X90.369 Y81.569 E5.85845 F540.000
G1 X90.829 Y80.801 E5.93850
G1 X91.450 Y79.488 E6.06835
G1 X91.729 Y79.550 E6.09390
G1 X91.729 Y92.279 E7.23182
G1 X89.058 Y92.279 E7.47059
G1 X88.997 Y92.052 E7.49162
G1 X90.799 Y91.011 E7.67766
G1 X90.799 Y85.989 E8.12663
G1 X88.284 Y84.537 E8.38625
G1 X91.450 Y73.512 F7800.000
G1 X90.637 Y71.793 E8.55628 F540.000
G1 X89.835 Y70.712 E8.67655
G1 X89.234 Y70.049 E8.75659
G1 X88.571 Y69.448 E8.83663
G1 X87.699 Y68.801 E8.93368
G1 X90.799 Y67.011 E9.25373
